my-app/src/IMG/LinkedIn - Negative.svg

<svg width="48" height="48" viewBox="0 0 48 48" fill="none" xmlns="http://www.w3.org/2000/svg">
<path d="M44.4469 0H3.54375C1.58437 0 0 1.54688 0 3.45938V44.5312C0 46.4437 1.58437 48 3.54375 48H44.4469C46.4063 48 48 46.4438 48 44.5406V3.45938C48 1.54688 46.4063 0 44.4469 0ZM14.2406 40.9031H7.11563V17.9906H14.2406V40.9031ZM10.6781 14.8688C8.39063 14.8688 6.54375 13.0219 6.54375 10.7437C6.54375 8.46562 8.39063 6.61875 10.6781 6.61875C12.9563 6.61875 14.8031 8.46562 14.8031 10.7437C14.8031 13.0125 12.9563 14.8688 10.6781 14.8688ZM40.9031 40.9031H33.7875V29.7656C33.7875 27.1125 33.7406 23.6906 30.0844 23.6906C26.3812 23.6906 25.8187 26.5875 25.8187 29.5781V40.9031H18.7125V17.9906H25.5375V21.1219H25.6312C26.5781 19.3219 28.9031 17.4188 32.3625 17.4188C39.5719 17.4188 40.9031 22.1625 40.9031 28.3313V40.9031V40.9031Z" fill="white"/>
</svg>

<svg width="48" height="48" fill="none" xmlns="http://www.w3.org/2000/svg"><path d="M44.447 0H3.544C1.584 0 0 1.547 0 3.46V44.53C0 46.444 1.584 48 3.544 48h40.903C46.407 48 48 46.444 48 44.54V3.46C48 1.546 46.406 0 44.447 0ZM14.24 40.903H7.116V17.991h7.125v22.912ZM10.678 14.87a4.127 4.127 0 0 1-4.134-4.125 4.127 4.127 0 0 1 4.134-4.125 4.125 4.125 0 0 1 0 8.25Zm30.225 26.034h-7.115V29.766c0-2.653-.047-6.075-3.704-6.075-3.703 0-4.265 2.896-4.265 5.887v11.325h-7.107V17.991h6.826v3.13h.093c.947-1.8 3.272-3.702 6.731-3.702 7.21 0 8.541 4.744 8.541 10.912v12.572Z" fill="#fff"/></svg>
